X:1
T:[ID 11-30a]
T:[ID 11-30a]
T:Bezeichnung standardisiert: Eccosaise Nr 17 Cosaise
T:Urheber unbekannt Datum in der hier transkribierten schriftlichen Quelle: vermutlich um 1800
C:Urheber unbekannt
C:Datum in der hier transkribierten schriftlichen Quelle: vermutlich um 1800
L:1/8
M:2/4
K:C
V:1 treble 
V:1
 cBcB | cdef | gaga | gfed | cdec | defd | Bcdc | c2 :: d'bd'b | c'geg | fefd | bc'd'b | c'bc'b | %13
 c'e'd'c' | bf'd'b | c'2 z2 :| %16

